X: 1
T:Donnybrook Fair
T:Joy of My Life, The
Z:This is about as often found under one title as the other.
M:6/8
R:jig
K:G
D|~G3 AGA|Bee dBA|BAB GAB|AGE GED|~G3 AGA|Bee dBA|BAB GAB|AGF G2:|
f|gfe fed|ege dBA|Bee fed|Bee e2 f|~g3 fed|ege dBA|BAB GAB|AGF G2 f|
|gfe fed|ege dBA|Bee fed|Bee e2 f|~g3 aga|bge dBA|BAB GAB|AGF G2||
